Catalina-dark/actions/22/view-list-tree.svg

<svg xmlns="http://www.w3.org/2000/svg" viewBox="0 0 22 22">
  <defs id="defs3051">
    <style type="text/css" id="current-color-scheme">
      .ColorScheme-Text {
        color:#f2f2f2
      }
      </style>
  </defs>
    <path
       style="fill:currentColor;fill-opacity:1;stroke:none"
       class="ColorScheme-Text"
       d="M 6.46875 3 C 5.83165 3 5.2430681 3.1566931 4.7050781 3.4707031 C 4.1670381 3.7846431 3.7417344 4.2100069 3.4277344 4.7480469 C 3.1136744 5.2860869 2.9570312 5.8746787 2.9570312 6.5117188 C 2.9570312 7.1488188 3.1137844 7.7353375 3.4277344 8.2734375 C 3.7417344 8.8113675 4.1670281 9.2387344 4.7050781 9.5527344 C 5.2431181 9.8667344 5.83166 10.023438 6.46875 10.023438 C 7.10585 10.023438 7.6924887 9.8667344 8.2304688 9.5527344 C 8.519605 9.3840058 8.7755687 9.1807177 9 8.9472656 L 9 15 L 9 16 L 10 16 L 12.056641 16 C 12.119087 16.442908 12.262267 16.861212 12.490234 17.251953 C 12.804244 17.789883 13.231491 18.215287 13.769531 18.529297 C 14.307571 18.843297 14.89415 19 15.53125 19 C 16.16835 19 16.756942 18.843297 17.294922 18.529297 C 17.832912 18.215347 18.258266 17.789943 18.572266 17.251953 C 18.886216 16.713913 19.042969 16.125321 19.042969 15.488281 C 19.042969 14.851191 18.886156 14.264553 18.572266 13.726562 C 18.258266 13.188583 17.832902 12.761266 17.294922 12.447266 C 16.756822 12.133266 16.1684 11.976562 15.53125 11.976562 C 14.89415 11.976562 14.307511 12.133266 13.769531 12.447266 C 13.231491 12.761216 12.804234 13.188522 12.490234 13.726562 C 12.258106 14.124239 12.113275 14.548222 12.052734 15 L 10 15 L 10 7 L 12.011719 7 C 12.07227 7.4517709 12.217179 7.8757162 12.449219 8.2734375 C 12.763229 8.8113675 13.188523 9.2387344 13.726562 9.5527344 C 14.264603 9.8667344 14.853144 10.023438 15.490234 10.023438 C 16.127334 10.023438 16.713973 9.8667344 17.251953 9.5527344 C 17.789943 9.2387844 18.215287 8.8114175 18.529297 8.2734375 C 18.843237 7.7353975 19 7.1487588 19 6.5117188 C 19 5.8746187 18.843187 5.2860269 18.529297 4.7480469 C 18.215297 4.2100569 17.789933 3.7847031 17.251953 3.4707031 C 16.713853 3.1566931 16.127384 3 15.490234 3 C 14.853134 3 14.264543 3.1566931 13.726562 3.4707031 C 13.188522 3.7846431 12.763219 4.2100069 12.449219 4.7480469 C 12.221164 5.1387442 12.078061 5.5570833 12.015625 6 L 9.9433594 6 C 9.8809302 5.5570636 9.7376966 5.1387007 9.5097656 4.7480469 C 9.1957656 4.2100569 8.7684587 3.7847031 8.2304688 3.4707031 C 7.6923688 3.1566931 7.1059 3 6.46875 3 z "
        />
</svg>

<svg width="22" height="22" viewBox="2.957 3 16.09 16" xmlns="http://www.w3.org/2000/svg">
<defs>
<style id="current-color-scheme" type="text/css">.ColorScheme-Text {
        color:#f2f2f2
      }</style>
</defs>
<path class="ColorScheme-Text" d="m6.4688 3c-0.6371 0-1.2257 0.15669-1.7637 0.4707-0.53804 0.31394-0.96334 0.7393-1.2773 1.2773-0.31406 0.53804-0.4707 1.1266-0.4707 1.7637s0.15675 1.2236 0.4707 1.7617c0.314 0.53793 0.73929 0.9653 1.2773 1.2793 0.53804 0.314 1.1266 0.4707 1.7637 0.4707s1.2237-0.1567 1.7617-0.4707c0.28914-0.16873 0.5451-0.37202 0.76953-0.60547v7.0527h3.0566c0.062446 0.44291 0.20563 0.86121 0.43359 1.252 0.31401 0.53793 0.74126 0.96333 1.2793 1.2773 0.53804 0.314 1.1246 0.4707 1.7617 0.4707s1.2257-0.1567 1.7637-0.4707c0.53799-0.31395 0.96334-0.73935 1.2773-1.2773 0.31395-0.53804 0.4707-1.1266 0.4707-1.7637 0-0.63709-0.15681-1.2237-0.4707-1.7617-0.314-0.53798-0.73936-0.9653-1.2773-1.2793-0.5381-0.314-1.1265-0.4707-1.7637-0.4707-0.6371 0-1.2237 0.1567-1.7617 0.4707-0.53804 0.31395-0.9653 0.74126-1.2793 1.2793-0.23213 0.39768-0.37696 0.82166-0.4375 1.2734h-2.0527v-8h2.0117c0.060551 0.45177 0.20546 0.87572 0.4375 1.2734 0.31401 0.53793 0.7393 0.9653 1.2773 1.2793 0.53804 0.314 1.1266 0.4707 1.7637 0.4707s1.2237-0.1567 1.7617-0.4707c0.53799-0.31395 0.96333-0.74132 1.2773-1.2793 0.31394-0.53804 0.4707-1.1247 0.4707-1.7617 0-0.6371-0.15681-1.2257-0.4707-1.7637-0.314-0.53799-0.73936-0.96334-1.2773-1.2773-0.5381-0.31401-1.1246-0.4707-1.7617-0.4707s-1.2257 0.15669-1.7637 0.4707c-0.53804 0.31394-0.96334 0.7393-1.2773 1.2773-0.22806 0.3907-0.37116 0.80904-0.43359 1.252h-2.0723c-0.062429-0.44294-0.20566-0.8613-0.43359-1.252-0.314-0.53799-0.74131-0.96334-1.2793-1.2773-0.5381-0.31401-1.1246-0.4707-1.7617-0.4707z" fill="currentColor"/>
</svg>
